X: 34659
T: Road To Boston
R: polka
M: 2/4
K: Dmajor
|:Ad fa|ge e2|cd ef|d2 d2|
Ad fa|ge e2|cd ef|d2 d2:|
|:fa ag/a/|ba gf|eg gb|ag fe|
df fe/f/|gf ed|cd ef|d2 d2:|

